flaticon/interaction/music-player-11.svg

<svg xmlns="http://www.w3.org/2000/svg" width="32" height="32" viewBox="0 0 24 24">
    <path d="M 21.929688 16.136719 C 21.929688 14.542969 20.632812 13.242188 19.035156 13.242188 C 17.4375 13.242188 16.136719 14.542969 16.136719 16.136719 L 16.136719 16.550781 L 14.484375 16.550781 L 14.484375 24 L 23.585938 24 L 23.585938 16.550781 L 21.929688 16.550781 Z M 16.964844 16.136719 C 16.964844 14.996094 17.894531 14.070312 19.035156 14.070312 C 20.175781 14.070312 21.101562 14.996094 21.101562 16.136719 L 21.101562 16.550781 L 16.964844 16.550781 Z M 22.757812 17.378906 L 22.757812 23.171875 L 15.308594 23.171875 L 15.308594 17.378906 Z M 22.757812 17.378906"/>
    <path d="M18.621094 21.457031L18.621094 21.929688C18.621094 22.160156 18.804688 22.34375 19.035156 22.34375 19.261719 22.34375 19.449219 22.160156 19.449219 21.929688L19.449219 21.457031C20.160156 21.273438 20.691406 20.632812 20.691406 19.863281 20.691406 18.949219 19.949219 18.207031 19.035156 18.207031 18.121094 18.207031 17.378906 18.949219 17.378906 19.863281 17.378906 20.632812 17.910156 21.273438 18.621094 21.457031zM19.035156 19.035156C19.492188 19.035156 19.863281 19.40625 19.863281 19.863281 19.863281 20.320312 19.492188 20.691406 19.035156 20.691406 18.578125 20.691406 18.207031 20.320312 18.207031 19.863281 18.207031 19.40625 18.578125 19.035156 19.035156 19.035156zM23.585938 0L.414062 0C.183594 0 0 .183594 0 .414062L0 19.863281C0 20.089844.183594 20.277344.414062 20.277344L11.585938 20.277344C11.816406 20.277344 12 20.089844 12 19.863281 12 19.632812 11.816406 19.449219 11.585938 19.449219L.828125 19.449219.828125.828125 23.171875.828125 23.171875 12.828125C23.171875 13.054688 23.359375 13.242188 23.585938 13.242188 23.816406 13.242188 24 13.054688 24 12.828125L24 .414062C24 .183594 23.816406 0 23.585938 0zM23.585938 0"/>
    <path d="M 12.835938 12.714844 C 12.835938 11.863281 13.636719 11.167969 14.625 11.167969 C 15.089844 11.167969 15.53125 11.328125 15.871094 11.613281 C 16.046875 11.757812 16.308594 11.738281 16.453125 11.5625 C 16.53125 11.46875 16.558594 11.351562 16.542969 11.238281 C 16.546875 11.226562 16.550781 11.214844 16.550781 11.203125 L 16.550781 4.167969 C 16.550781 4.046875 16.5 3.933594 16.410156 3.855469 C 16.320312 3.777344 16.203125 3.742188 16.082031 3.757812 L 8.636719 4.734375 C 8.429688 4.761719 8.277344 4.9375 8.277344 5.148438 L 8.277344 13.1875 C 7.792969 12.765625 7.136719 12.507812 6.414062 12.507812 C 4.929688 12.507812 3.722656 13.601562 3.722656 14.941406 C 3.722656 16.285156 4.929688 17.378906 6.414062 17.378906 C 7.898438 17.378906 9.101562 16.285156 9.101562 14.941406 L 9.101562 7.578125 L 15.722656 6.707031 L 15.722656 10.574219 C 15.382812 10.425781 15.011719 10.339844 14.625 10.339844 C 13.183594 10.339844 12.007812 11.40625 12.007812 12.714844 C 12.007812 13.355469 12.285156 13.957031 12.789062 14.40625 C 12.867188 14.476562 12.96875 14.511719 13.066406 14.511719 C 13.179688 14.511719 13.292969 14.464844 13.375 14.375 C 13.527344 14.203125 13.511719 13.941406 13.339844 13.789062 C 13.015625 13.5 12.835938 13.117188 12.835938 12.714844 Z M 6.414062 16.550781 C 5.386719 16.550781 4.550781 15.828125 4.550781 14.941406 C 4.550781 14.054688 5.386719 13.332031 6.414062 13.332031 C 7.441406 13.332031 8.277344 14.054688 8.277344 14.941406 C 8.277344 15.828125 7.441406 16.550781 6.414062 16.550781 Z M 9.101562 6.742188 L 9.101562 5.507812 L 15.722656 4.636719 L 15.722656 5.871094 Z M 9.101562 6.742188"/>
</svg>

<svg xmlns="http://www.w3.org/2000/svg" width="32" height="32" viewBox="0 0 24 24">
    <path d="M21.93 16.137a2.898 2.898 0 0 0-2.895-2.895 2.902 2.902 0 0 0-2.898 2.895v.414h-1.653V24h9.102v-7.45H21.93zm-4.965 0a2.067 2.067 0 1 1 4.137 0v.414h-4.137zm5.793 1.242v5.793h-7.45v-5.793zm0 0"/>
    <path d="M18.621 21.457v.473a.414.414 0 0 0 .828 0v-.473a1.65 1.65 0 0 0-.414-3.25c-.914 0-1.656.742-1.656 1.656 0 .77.531 1.41 1.242 1.594zm.414-2.422a.829.829 0 1 1 0 1.657.829.829 0 0 1 0-1.657zm0 0M23.586 0H.414A.412.412 0 0 0 0 .414v19.45c0 .226.184.413.414.413h11.172a.414.414 0 0 0 0-.828H.828V.83h22.344v12a.414.414 0 0 0 .828 0V.413A.412.412 0 0 0 23.586 0zm0 0"/>
    <path d="M12.836 12.715c0-.852.8-1.547 1.789-1.547.465 0 .906.16 1.246.445a.414.414 0 0 0 .582-.05.413.413 0 0 0 .09-.325c.004-.011.008-.023.008-.035V4.168a.412.412 0 0 0-.469-.41l-7.445.976a.414.414 0 0 0-.36.414v8.04a2.83 2.83 0 0 0-1.863-.68c-1.484 0-2.691 1.094-2.691 2.433 0 1.344 1.207 2.438 2.691 2.438 1.484 0 2.688-1.094 2.688-2.438V7.578l6.62-.871v3.867a2.739 2.739 0 0 0-1.097-.234c-1.441 0-2.617 1.066-2.617 2.375 0 .64.277 1.242.781 1.691a.417.417 0 0 0 .586-.031.415.415 0 0 0-.035-.586 1.437 1.437 0 0 1-.504-1.074zM6.414 16.55c-1.027 0-1.863-.723-1.863-1.61 0-.886.836-1.609 1.863-1.609 1.027 0 1.863.723 1.863 1.61 0 .886-.836 1.609-1.863 1.609zm2.688-9.809V5.508l6.62-.871V5.87zm0 0"/>
</svg>
